X:14
T:Julia Clifford's #2
R:polka
D:Mary Bergin: Feadoga Stain 2
Z:id:hn-polka-52
M:2/4
L:1/8
K:D
     (3efg (AB) | (3=c/d/c/A (AG) | (Ad)   (3d/e/d/c | d2  d>(e |
     f)ded      | (3=c/d/c/A (Ad) | (3cBA       (GE) | D2  D>(E |
     F)GAB      | (3=c/d/c/A (AG) | (Ad)   (3d/e/d/c | d2  d>(e |
     f)ded      | (3=c/d/c/A (Ad) | (3cBA       (GE) | D2  D2   ||
 e | fded       | cA         A>e  | fg/f/         ec | d2   d>e | 
     fded       | (3=c/d/c/A (Ad) | (3cBA       (GE) | D2 D2    :|
